X:2
T:Roaring Mary
R:reel
Z:id:hn-reel-362

Z:transcribed by henrik.norbeck@mailbox.swipnet.se
M:C|
K:D
DF~F2 AF~F2|ABdf g2fe|d2dB ABde|fede fe~e2|
DF~F2 AF~F2|ABdf g2fe|d2dB ABdf|1 afeg fd~d2:|2 afeg fddf||
|:~a3g ~f3e|d2dA BAFA|dg~g2 bg~g2|af~f2 ge~e2|
DF~F2 AF~F2|ABdf g2fe|d2dB ABdf|1 afeg fddf:|2 afeg fd~d2||
"Variations:"
|:DF~F2 AF~F2|df~f2 gefe|dedB ABde|fede fe~e2|
DF~F2 AF~F2|df~f2 gefe|dedB ABdf|1 afeg fd~d2:|2 afeg fddf||
|:adag fgfe|dcdA BA~A2|dg~g2 bgdg|afdf ge~e2|
DF~F2 AF~F2|df~f2 gefe|dcdB ABdf|1 afeg fddf:|2 afeg fd~d2||

                       

ROARING RIVER. Old‑Time. The title appears in a list of traditional Ozark Mountain fiddle tunes compiled by musicologist/folklorist Vance Randolph, published in 1954.

                       

ROARING RIVIE. Scottish, Strathspey. D Major. Standard tuning. AAB. Stewart-Robertson (The Athole Collection), 1884; pg. 112.

